src/24/panel/btsync-gui-paused.svg

<svg xmlns="http://www.w3.org/2000/svg" width="24" height="24" version="1.1">
 <defs>
  <style id="current-color-scheme" type="text/css">
   .ColorScheme-Text { color:#dfdfdf; } .ColorScheme-Highlight { color:#4285f4; }
  </style>
 </defs>
 <g>
  <path style="fill:currentColor" class="ColorScheme-Text" d="m 12,3.9999998 c -4.4180499,0 -8.0000002,3.5819503 -8.0000002,8.0000002 0,4.41805 3.5819503,8 8.0000002,8 4.41805,0 8,-3.58195 8,-8 0,-4.4180499 -3.58195,-8.0000002 -8,-8.0000002 z m -3.7500002,2 3.0000002,0 c 0.287546,8.689e-4 0.560795,0.1252673 0.75,0.3417969 0.189205,-0.2165296 0.462454,-0.340928 0.75,-0.3417969 l 3,0 c 0.552291,0 1,0.4477091 1,1 l 0,1.9140625 c 0.201002,0.2820032 0.385248,0.5784339 0.53125,0.8984375 l 1.21875,-0.46875 -1,3.4687502 -0.75,-0.417969 0,1.408203 0.59375,0.228516 C 17.186748,14.407254 16.980003,14.749215 16.75,15.074219 L 16.75,17 c 0,0.552291 -0.447709,1 -1,1 l -3,0 C 12.46277,17.999636 12.189572,17.875943 12,17.660156 11.810428,17.875943 11.53723,17.999636 11.25,18 l -3.0000002,0 c -0.5522909,0 -1,-0.447709 -1,-1 l 0,-1.939453 C 7.0479975,14.775544 6.8627514,14.478254 6.7187498,14.15625 l -1.21875,0.439453 1,-3.375 0.75,0.402344 0,-1.394532 -0.59375,-0.2285152 C 6.8092515,9.6179955 7.0179972,9.2704566 7.2499998,8.9394529 l 0,-1.9394531 c 0,-0.5522909 0.4477091,-1 1,-1 z m 0.75,1 c -0.554,0 -1,0.446 -1,1 l 0,8.0000002 c 0,0.554 0.446,1 1,1 l 1,0 C 10.554,17 11,16.554 11,16 l 0,-8.0000002 c 0,-0.554 -0.446,-1 -1.0000002,-1 z m 5.0000002,0 c -0.554,0 -1,0.446 -1,1 L 13,16 c 0,0.554 0.446,1 1,1 l 1,0 c 0.554,0 1,-0.446 1,-1 l 0,-8.0000002 c 0,-0.554 -0.446,-1 -1,-1 z"/>
 </g>
</svg>

<svg xmlns="http://www.w3.org/2000/svg" width="24" height="24"><defs><style id="current-color-scheme" type="text/css"></style></defs><path d="M12 4a8 8 0 1 0 0 16 8 8 0 0 0 0-16zM8.25 6h3a1 1 0 0 1 .75.342A1 1 0 0 1 12.75 6h3a1 1 0 0 1 1 1v1.914c.201.282.385.578.531.898l1.219-.468-1 3.469-.75-.418v1.408l.594.228a5.43 5.43 0 0 1-.594 1.043V17a1 1 0 0 1-1 1h-3a1 1 0 0 1-.75-.34 1 1 0 0 1-.75.34h-3a1 1 0 0 1-1-1v-1.94a5.346 5.346 0 0 1-.531-.904l-1.219.44 1-3.375.75.402v-1.394L6.656 10c.153-.382.362-.73.594-1.06V7a1 1 0 0 1 1-1zM9 7c-.554 0-1 .446-1 1v8c0 .554.446 1 1 1h1c.554 0 1-.446 1-1V8c0-.554-.446-1-1-1zm5 0c-.554 0-1 .446-1 1v8c0 .554.446 1 1 1h1c.554 0 1-.446 1-1V8c0-.554-.446-1-1-1z" fill="currentColor" color="#323232"/></svg>
